X: 42504
T: What Pain I've Endured Since Last Year
R: slip jig
M: 9/8
K: Eminor
eBB BAG FDF|EFG AGA Bgf|eBB BAG FDF|EFd BAF E3:|
Bee Beg fed|Bee Bgg f2e|Bee Bgg fed|edB ABd e2e|
Bee Beg fed|Bee Bgg f2e|Bef ~g3 fed|edB ABd e3||

